X: 2331
T: Ratha Fair.   a Reel.
%R: reel
B: Niel Gow & Sons "Complete Repository" v.2 p.33 #1 (with top 2 staves continued from p.32)
Z: 2021 John Chambers <jc:trillian.mit.edu>
M: C|
L: 1/8
K: Dm
% - - - - - - - - - -
% Voice 1 reformatted for _ _-bar lines, for compactness and proofreading.
V: 1 staves=2
!p!f/g/ |\
adaf ecge | adag adag | adaf ecge | afge d2df/g/ || adaf ecge | adag adfa |
gbfa gceg |a<fg>e d2-d |: e | (cAA)>c GAcG | (cAA)>=B Tc>ded | (cAA)>c GAcG | (A/=B/c) (.E.c) D3 :|
% - - - - - - - - - -
% Voice 2 preserves the staff layout in the book.
V: 2 clef=bass middle=d
z |\
d'2d'2 c'2c'2 | d'2d'2 d'2d'2 |\
d'2d'2 c'2c'2 | d'2a2 d2d2 ||\
d'2d'2 c'2c'2 | d'2d'2 d2d2 |
e2f2 c2c2 | d2A2 d2D |: z |\
[a2A2][a2A2] [g2G2][g2G2] | [a2A2][a2A2] [a2A2][a2A2] |\
[f2F2][f2F2] [g2G2][g2G2] | [a2A2][a2A2] [d3D3] :|


